X:1
T:Title
%%score 1 { 2 | 3 }
L:1/8
Q:1/4=80
M:6/8
K:Eb
V:1 treble nm="French Horn, Soprano"
V:2 bass nm="Choir Pad, Where They Never GrowOld"
V:3 bass 
V:1
 [EG]/[FA]<[GB][GB]/ [GB][EG][FA] | [GB][Ac][GB]- [GB]3/2 z/ [GB] | [GB][GB]>[FA] [EG][DF][EG] | %3
w: By~Frank~Monford~Graham * * * * * *|||
 [FA] [EG]2- [EG]2- [EG]/ z/ | [EG]/[FA]<[GB][GB]/ [GB][EG][FA] | [GB][B_d][Ac]- [Ac]3/2 z/ [Ac] | %6
w: |||
 [Ac][GB]>[FA] [EG][DF][EG] | [DF] E2- E2- E/ z/ | [GB]/[GB]<[Ac][Ac]/ [Ac][ce]>[Bd] | %9
w: |||
 [Ac][Ac][GB]- [GB]/[_G=A]/ [=GB]2 | [GB]/[GB]<[GB][GB]/ [GB][AB][AB] | %11
w: ||
 [AB] [GB]2- [GB]2- [GB]/ z/ | [GB]/[GB]<[Ac][Ac]/ [Ac][ce]>[Bd] | [Ac][Ac][GB]- [GB]3/2 z/ [GB] | %14
w: |||
 [GB][GB]>[GB] [GB][AB][GB]- | [GB]/[FA]/ [EG]2- [EG]3- | [EG]3 z3 |] %17
w: |||
V:2
 z B,2 z B,2 | z B,2 z B,2 | z B,2 z B,2 | z B,2- B,2- B,/ z/ | z B,2 z B,2 | z G,A,- A,3/2 z/ z | %6
 z B,2 z B,2 | z B,2- B,2- B,/ z/ | z A,2 z A,2 | z B,2 z B,2 | z B,2 z B,2 | z B,2- B,2- B,/ z/ | %12
 z B,2 z B,2 | z B,2 z B,2 | z B,2 z B,2 | z B,2- B,3- | B,3 z3 |] %17
V:3
 z [E,G,]2 z [E,G,]2 | z [E,G,]2 z [E,G,]2 | z B,,2 z B,,2 | z [E,G,]2- [E,G,]2- [E,G,]/ z/ | %4
 z [E,G,]2 z [E,G,]2 | z2 A,,- A,,3/2 z/ z | z B,,2 z B,,2 | z [E,G,]2- [E,G,]2- [E,G,]/ z/ | %8
 z A,,2 z A,,2 | z [E,G,]2 z [E,G,]2 | z B,,2 z B,,2 | z [E,G,]2- [E,G,]2- [E,G,]/ z/ | %12
 z A,,2 z A,,2 | z [E,G,]2 z [E,G,]2 | z B,,2 z B,,2 | z [E,G,]2- [E,G,]3- | [E,G,]3 z3 |] %17

